assets/images/lobster2.svg

<svg width="402" height="410" viewBox="0 0 402 410" fill="none" xmlns="http://www.w3.org/2000/svg">
<path fill-rule="evenodd" clip-rule="evenodd" d="M184.577 28.5249C231.465 23.3899 271.51 56.8705 307.109 87.8241C346.354 121.948 398.132 158.563 393.738 210.393C389.407 261.478 327.304 280.95 287.95 313.797C254.561 341.666 228.049 383.837 184.577 384.973C140.53 386.124 106.898 350.425 75.6575 319.344C44.2955 288.143 6.84409 254.581 9.09694 210.393C11.3029 167.125 56.1501 143.187 86.2278 112.014C117.269 79.8428 140.144 33.3911 184.577 28.5249Z" fill="#D8E6FF" fill-opacity="0.7"/>
<path opacity="0.1" fill-rule="evenodd" clip-rule="evenodd" d="M223.31 64.812C254.793 71.966 292.412 45.0858 317.804 64.9945C343.26 84.9536 328.377 126.862 340.607 156.779C354.46 190.664 399.532 213.915 393.437 250.003C387.444 285.479 346.255 303.901 313.298 318.461C285.102 330.918 253.389 318.393 223.31 325.162C179.3 335.065 141.511 379.05 98.0719 366.893C53.1426 354.318 14.2855 310.887 7.59363 264.79C1.00286 219.389 51.1577 187.222 65.6706 143.694C80.0106 100.685 50.7706 33.8526 91.365 13.5393C134.616 -8.10323 176.136 54.0924 223.31 64.812Z" fill="#E84563"/>
<g clip-path="url(#clip0_2606_17233)" filter="url(#filter0_f_2606_17233)">
<path d="M228.292 225.332C228.292 225.332 242.844 219.235 229.285 207.175C229.285 207.175 188.454 168.328 176.987 179.633" stroke="#FF7B7E" stroke-opacity="0.2" stroke-width="5.39346"/>
<path d="M228.292 225.332C228.292 225.332 242.844 219.235 229.285 207.175C229.285 207.175 188.454 168.328 176.987 179.633" stroke="#FF7B7E" stroke-opacity="0.2" stroke-width="5.39346" stroke-linecap="round"/>
<path d="M185.407 168.355C185.407 168.355 190.775 143.257 167.544 136.336C153.01 130.86 146.105 127.866 145.215 119.374C144.322 110.886 151.586 109.673 153.648 112.762" stroke="#FF7B7E" stroke-opacity="0.2" stroke-width="4.71927" stroke-linecap="round"/>
<path d="M219.715 187.353C219.715 187.353 231.065 171.374 228.224 155.746C226.173 145.629 231.167 141.248 235.227 134.625C239.292 128.006 239.292 109.468 226.841 98.1011C214.389 86.7346 201.072 91.9808 201.072 91.9808C201.072 91.9808 194.31 94.6019 205.564 99.482C216.814 104.366 217.621 115.926 218.215 127.271" stroke="#FF7B7E" stroke-opacity="0.2" stroke-width="5.39346" stroke-linecap="round"/>
<path d="M201.326 117.302C201.326 117.302 197.088 135.964 219.284 147.734" stroke="#FF7B7E" stroke-opacity="0.2" stroke-width="5.39346" stroke-linecap="round"/>
<path d="M251.123 223.628L235.528 239.005" stroke="#FF7B7E" stroke-opacity="0.2" stroke-width="5.39346" stroke-linecap="round"/>
<path d="M257.43 234.662L244.152 247.753" stroke="#FF7B7E" stroke-opacity="0.2" stroke-width="5.39346" stroke-linecap="round"/>
<path d="M263.457 245.974L252.778 256.503" stroke="#FF7B7E" stroke-opacity="0.2" stroke-width="5.39346" stroke-linecap="round"/>
<path d="M270.609 255.826C270.609 255.826 315.554 267.741 289.341 293.586" stroke="#FF7B7E" stroke-opacity="0.2" stroke-width="5.39346" stroke-linecap="round"/>
<path d="M222.018 231.526C222.018 231.526 215.716 245.99 203.848 232.263C203.848 232.263 165.582 190.886 177.049 179.58" stroke="#FF7B7E" stroke-opacity="0.2" stroke-width="5.39346"/>
<path d="M222.018 231.526C222.018 231.526 215.716 245.99 203.848 232.263C203.848 232.263 165.582 190.886 177.049 179.58" stroke="#FF7B7E" stroke-opacity="0.2" stroke-width="5.39346" stroke-linecap="round"/>
<path d="M165.654 187.838C165.654 187.838 140.482 192.851 133.891 169.524C128.621 154.915 125.725 147.967 117.246 146.958C108.767 145.949 107.455 153.191 110.515 155.296" stroke="#FF7B7E" stroke-opacity="0.2" stroke-width="4.71927" stroke-linecap="round"/>
<path d="M184.164 222.413C184.164 222.413 168.026 233.536 152.44 230.474C142.354 228.28 137.902 233.212 131.222 237.178C124.546 241.149 106.01 240.888 94.8207 228.277C83.6313 215.666 89.0653 202.424 89.0653 202.424C89.0653 202.424 91.7817 195.7 96.5023 207.022C101.227 218.34 112.775 219.31 124.109 220.064" stroke="#FF7B7E" stroke-opacity="0.2" stroke-width="5.39346" stroke-linecap="round"/>
<path d="M114.384 203.031C114.384 203.031 133.104 199.057 144.56 221.417" stroke="#FF7B7E" stroke-opacity="0.2" stroke-width="5.39346" stroke-linecap="round"/>
<path d="M219.985 254.313L235.576 238.94" stroke="#FF7B7E" stroke-opacity="0.2" stroke-width="5.39346" stroke-linecap="round"/>
<path d="M230.937 260.793L244.215 247.702" stroke="#FF7B7E" stroke-opacity="0.2" stroke-width="5.39346" stroke-linecap="round"/>
<path d="M242.26 266.88L252.84 256.448" stroke="#FF7B7E" stroke-opacity="0.2" stroke-width="5.39346" stroke-linecap="round"/>
<path d="M251.906 274.263C251.906 274.263 263.185 319.372 289.397 293.527" stroke="#FF7B7E" stroke-opacity="0.2" stroke-width="5.39346" stroke-linecap="round"/>
</g>
<g clip-path="url(#clip1_2606_17233)">
<path d="M229.243 217.708C229.243 217.708 243.795 211.611 230.237 199.551C230.237 199.551 189.405 160.703 177.938 172.009" stroke="#FF002E" stroke-width="5.39346"/>
<path d="M229.243 217.708C229.243 217.708 243.795 211.611 230.237 199.551C230.237 199.551 189.405 160.703 177.938 172.009" stroke="#FF002E" stroke-width="5.39346" stroke-linecap="round"/>
<path d="M186.358 160.731C186.358 160.731 191.726 135.632 168.495 128.712C153.961 123.236 147.056 120.242 146.167 111.75C145.273 103.262 152.537 102.049 154.599 105.138" stroke="#FF002E" stroke-width="4.71927" stroke-linecap="round"/>
<path d="M220.667 179.729C220.667 179.729 232.016 163.75 229.175 148.122C227.124 138.005 232.118 133.624 236.178 127.001C240.243 120.381 240.244 101.844 227.792 90.477C215.341 79.1105 202.024 84.3568 202.024 84.3568C202.024 84.3568 195.261 86.9779 206.515 91.858C217.765 96.7422 218.572 108.302 219.166 119.647" stroke="#FF002E" stroke-width="5.39346" stroke-linecap="round"/>
<path d="M202.277 109.678C202.277 109.678 198.039 128.34 220.235 140.11" stroke="#FF002E" stroke-width="5.39346" stroke-linecap="round"/>
<path d="M252.074 216.004L236.479 231.381" stroke="#FF002E" stroke-width="5.39346" stroke-linecap="round"/>
<path d="M258.381 227.038L245.103 240.129" stroke="#FF002E" stroke-width="5.39346" stroke-linecap="round"/>
<path d="M264.408 238.35L253.729 248.879" stroke="#FF002E" stroke-width="5.39346" stroke-linecap="round"/>
<path d="M271.56 248.201C271.56 248.201 316.505 260.117 290.292 285.962" stroke="#FF002E" stroke-width="5.39346" stroke-linecap="round"/>
<path d="M222.969 223.902C222.969 223.902 216.667 238.366 204.799 224.639C204.799 224.639 166.533 183.262 178 171.956" stroke="#FF002E" stroke-width="5.39346"/>
<path d="M222.969 223.902C222.969 223.902 216.667 238.366 204.799 224.639C204.799 224.639 166.533 183.262 178 171.956" stroke="#FF002E" stroke-width="5.39346" stroke-linecap="round"/>
<path d="M166.605 180.214C166.605 180.214 141.433 185.227 134.842 161.9C129.572 147.29 126.676 140.343 118.197 139.334C109.718 138.325 108.407 145.567 111.467 147.672" stroke="#FF002E" stroke-width="4.71927" stroke-linecap="round"/>
<path d="M185.115 214.789C185.115 214.789 168.978 225.912 153.391 222.85C143.305 220.656 138.853 225.588 132.173 229.554C125.497 233.525 106.961 233.264 95.7719 220.653C84.5825 208.042 90.0164 194.8 90.0164 194.8C90.0164 194.8 92.7328 188.076 97.4534 199.398C102.178 210.716 113.726 211.686 125.061 212.44" stroke="#FF002E" stroke-width="5.39346" stroke-linecap="round"/>
<path d="M115.336 195.407C115.336 195.407 134.056 191.433 145.511 213.793" stroke="#FF002E" stroke-width="5.39346" stroke-linecap="round"/>
<path d="M220.936 246.689L236.527 231.316" stroke="#FF002E" stroke-width="5.39346" stroke-linecap="round"/>
<path d="M231.889 253.169L245.166 240.078" stroke="#FF002E" stroke-width="5.39346" stroke-linecap="round"/>
<path d="M243.211 259.256L253.791 248.824" stroke="#FF002E" stroke-width="5.39346" stroke-linecap="round"/>
<path d="M252.857 266.639C252.857 266.639 264.136 311.748 290.349 285.903" stroke="#FF002E" stroke-width="5.39346" stroke-linecap="round"/>
</g>
<defs>
<filter id="filter0_f_2606_17233" x="-8" y="-0.375977" width="417.049" height="417.562" filterUnits="userSpaceOnUse" color-interpolation-filters="sRGB">
<feFlood flood-opacity="0" result="BackgroundImageFix"/>
<feBlend mode="normal" in="SourceGraphic" in2="BackgroundImageFix" result="shape"/>
<feGaussianBlur stdDeviation="4" result="effect1_foregroundBlur_2606_17233"/>
</filter>
<clipPath id="clip0_2606_17233">
<rect width="258.123" height="309.424" fill="white" transform="matrix(-0.712086 0.702092 0.702092 0.712086 183.805 7.62402)"/>
</clipPath>
<clipPath id="clip1_2606_17233">
<rect width="258.123" height="309.424" fill="white" transform="matrix(-0.712086 0.702092 0.702092 0.712086 184.756 0)"/>
</clipPath>
</defs>
</svg>

<svg xmlns="http://www.w3.org/2000/svg" xmlns:xlink="http://www.w3.org/1999/xlink" fill="none" viewBox="0 0 402 410"><defs><path id="c" stroke-width="5.4" d="M228.3 225.3s14.5-6 1-18.1c0 0-40.8-38.9-52.3-27.6"/><path id="d" stroke-width="5.4" d="M222 231.5s-6.3 14.5-18.2.8c0 0-38.2-41.4-26.8-52.7"/><path id="f" stroke-width="5.4" d="M229.2 217.7s14.6-6 1-18.1c0 0-40.8-38.9-52.3-27.6"/><path id="g" stroke-width="5.4" d="M223 223.9s-6.3 14.5-18.2.7c0 0-38.3-41.3-26.8-52.6"/><path id="h" fill="#fff" d="M0 0h258.1v309.4H0z"/></defs><path fill="#D8E6FF" fill-opacity=".7" fill-rule="evenodd" d="M184.6 28.5c46.9-5.1 87 28.4 122.5 59.3 39.3 34.1 91 70.8 86.6 122.6-4.3 51-66.4 70.5-105.8 103.4-33.3 27.9-59.9 70-103.3 71.2-44 1.1-77.7-34.6-109-65.7-31.3-31.2-68.8-64.7-66.5-109 2.2-43.2 47-67.1 77.1-98.3 31-32.2 54-78.6 98.4-83.5Z" clip-rule="evenodd"/><path fill="#E84563" fill-rule="evenodd" d="M223.3 64.8c31.5 7.2 69.1-19.7 94.5.2 25.5 20 10.6 61.9 22.8 91.8 13.9 33.9 59 57.1 52.8 93.2-6 35.5-47.1 53.9-80.1 68.5-28.2 12.4-60-.1-90 6.7-44 9.9-81.8 53.9-125.2 41.7-45-12.6-83.8-56-90.5-102.1-6.6-45.4 43.6-77.6 58-121.1C80 100.7 50.9 33.9 91.5 13.5 134.6-8 176 54.1 223.4 64.8Z" clip-rule="evenodd" opacity=".1"/><g stroke="#FF7B7E" stroke-opacity=".2" clip-path="url(#a)" filter="url(#b)"><use xlink:href="#c" stroke-width="5.4"/><use xlink:href="#c" stroke-linecap="round" stroke-width="5.4"/><path stroke-linecap="round" stroke-width="4.7" d="M185.4 168.4s5.4-25.1-17.9-32c-14.5-5.5-21.4-8.5-22.3-17-.9-8.5 6.4-9.7 8.4-6.6"/><path stroke-linecap="round" stroke-width="5.4" d="M219.7 187.4s11.4-16 8.5-31.7c-2-10 3-14.5 7-21 4-6.7 4-25.2-8.4-36.6-12.4-11.4-25.7-6.1-25.7-6.1s-6.8 2.6 4.5 7.5c11.2 4.9 12 16.4 12.6 27.8"/><path stroke-linecap="round" stroke-width="5.4" d="M201.3 117.3s-4.2 18.7 18 30.4m31.8 75.9L235.5 239m21.9-4.3-13.2 13m19.3-1.7-10.7 10.5m17.8-.7s45 12 18.7 37.8"/><use xlink:href="#d" stroke-width="5.4"/><use xlink:href="#d" stroke-linecap="round" stroke-width="5.4"/><path stroke-linecap="round" stroke-width="4.7" d="M165.7 187.8s-25.2 5-31.8-18.3c-5.3-14.6-8.2-21.5-16.7-22.5-8.4-1-9.7 6.2-6.7 8.3"/><path stroke-linecap="round" stroke-width="5.4" d="M184.2 222.4s-16.2 11.1-31.8 8c-10-2.1-14.5 2.8-21.2 6.8-6.7 4-25.2 3.7-36.4-9-11.2-12.5-5.7-25.8-5.7-25.8s2.7-6.7 7.4 4.6 16.3 12.3 27.6 13"/><path stroke-linecap="round" stroke-width="5.4" d="M114.4 203s18.7-4 30.2 18.4m75.4 32.9 15.6-15.4m-4.6 21.9 13.2-13.1m-1.9 19.2 10.5-10.5m-.8 17.9s11.2 45 37.4 19.2"/></g><g stroke="#FF002E" clip-path="url(#e)"><use xlink:href="#f" stroke-width="5.4"/><use xlink:href="#f" stroke-linecap="round" stroke-width="5.4"/><path stroke-linecap="round" stroke-width="4.7" d="M186.4 160.7s5.3-25-18-32c-14.4-5.5-21.3-8.5-22.2-17-1-8.4 6.3-9.7 8.4-6.6"/><path stroke-linecap="round" stroke-width="5.4" d="M220.7 179.7s11.3-16 8.5-31.6c-2-10 3-14.5 7-21.1 4-6.6 4-25.2-8.4-36.5C215.3 79 202 84.4 202 84.4s-6.7 2.6 4.5 7.5c11.3 4.8 12 16.4 12.7 27.7"/><path stroke-linecap="round" stroke-width="5.4" d="M202.3 109.7s-4.3 18.6 18 30.4M252 216l-15.5 15.4m21.9-4.4L245 240.1m19.4-1.8L253.7 249m17.9-.8s44.9 12 18.7 37.8"/><use xlink:href="#g" stroke-width="5.4"/><use xlink:href="#g" stroke-linecap="round" stroke-width="5.4"/><path stroke-linecap="round" stroke-width="4.7" d="M166.6 180.2s-25.2 5-31.8-18.3c-5.2-14.6-8.1-21.6-16.6-22.6-8.5-1-9.8 6.3-6.7 8.4"/><path stroke-linecap="round" stroke-width="5.4" d="M185.1 214.8s-16.1 11.1-31.7 8c-10-2.1-14.5 2.8-21.2 6.8-6.7 4-25.2 3.7-36.4-9C84.6 208 90 194.9 90 194.9s2.7-6.7 7.5 4.6c4.7 11.3 16.2 12.3 27.6 13"/><path stroke-linecap="round" stroke-width="5.4" d="M115.3 195.4s18.8-4 30.2 18.4m75.5 32.9 15.5-15.4m-4.6 21.9 13.3-13.1m-2 19.2 10.6-10.5m-.9 17.8s11.2 45.1 37.4 19.3"/></g><defs><clipPath id="a"><use xlink:href="#h" transform="scale(-1 1) rotate(44.6 -101.2 -220.3)"/></clipPath><clipPath id="e"><use xlink:href="#h" transform="scale(-1 1) rotate(44.6 -92.4 -225.3)"/></clipPath><filter id="b" width="417" height="417.6" x="-8" y="-.4" color-interpolation-filters="sRGB" filterUnits="userSpaceOnUse"><feFlood flood-opacity="0" result="BackgroundImageFix"/><feBlend in="SourceGraphic" in2="BackgroundImageFix" result="shape"/><feGaussianBlur result="effect1_foregroundBlur_2606_17233" stdDeviation="4"/></filter></defs></svg>
